images/epam.svg

<svg width="136" height="68" viewBox="0 0 136 68" fill="none" xmlns="http://www.w3.org/2000/svg">
<path d="M98.1531 41.952C98.1531 42.6704 98.0133 42.9192 97.2364 42.9093C94.7638 42.8794 94.7638 42.9093 94.7638 40.4395C94.7638 35.0355 94.7638 29.6322 94.7638 24.2295C94.7638 22.3866 93.9649 21.7916 92.1674 22.2792C91.8179 22.3747 91.4844 22.5319 91.1429 22.6593C90.332 22.9618 90.0484 23.4912 90.0544 24.4007C90.1043 30.2339 90.0544 36.0671 90.1003 41.9022C90.1003 42.6983 89.8626 42.8814 89.1017 42.8675C86.7889 42.8237 86.7889 42.8675 86.7889 40.5449C86.7889 35.141 86.7889 29.7383 86.7889 24.337C86.7889 22.3608 85.99 21.7637 84.0966 22.2991C82.3371 22.7966 82.1094 23.0951 82.1094 24.8962C82.1094 30.5324 82.0854 36.1666 82.1333 41.8007C82.1333 42.7102 81.8777 42.8933 81.0229 42.8695C78.746 42.8097 78.744 42.8515 78.744 40.6265C78.744 33.8301 78.76 27.0357 78.7261 20.2412C78.7261 19.4173 78.9258 19.0849 79.7626 19.2143C80.0609 19.2432 80.3612 19.2432 80.6594 19.2143C81.5601 19.1765 82.5328 19.0392 82.0794 20.6671C83.6173 19.3855 85.1192 18.7844 86.8728 19.0053C87.8294 19.1247 88.7162 19.4571 89.2475 20.2969C89.629 20.894 89.8806 20.7089 90.306 20.3785C91.73 19.27 93.3298 18.7307 95.1533 19.0571C96.6992 19.3377 97.6378 20.2711 97.9694 21.7796C98.0816 22.3317 98.1351 22.8941 98.1292 23.4573C98.1392 29.6229 98.1232 35.7884 98.1531 41.952Z" fill="#464648"/>
<path d="M63.1968 22.958C62.9971 20.1717 60.9819 18.6035 58.2037 19.0194C57.2448 19.1616 56.3381 19.5452 55.5694 20.1339C55.2678 20.3608 54.8803 20.532 54.9123 19.9508C54.9562 19.1548 54.5128 19.1985 53.9776 19.2165C53.4797 19.2563 52.9795 19.2563 52.4816 19.2165C51.6828 19.113 51.483 19.4155 51.483 20.2115C51.521 24.8526 51.501 29.4937 51.501 34.1427V46.4818C51.501 49.1108 51.501 49.0889 54.1833 49.0372C54.7825 49.0272 54.8903 48.8262 54.8823 48.2948C54.8544 46.4062 54.8663 44.5135 54.8823 42.6248C54.8823 42.3442 54.7385 41.9581 55.0281 41.8049C55.3177 41.6516 55.5334 42.0298 55.7711 42.179C57.4987 43.2597 59.3281 43.5602 61.1736 42.6308C62.9212 41.7512 63.2287 40.0675 63.2407 38.3022C63.2407 38.0375 63.2407 37.7728 63.2407 37.5061C63.2407 33.8256 63.2407 30.1451 63.2407 26.4647C63.2387 25.2765 63.2807 24.1123 63.1968 22.958ZM59.8994 37.6852C59.8994 39.55 59.1264 40.1889 57.265 39.8744C56.8744 39.8 56.4924 39.6867 56.1246 39.5361C55.2458 39.1998 54.7904 38.6684 54.8404 37.6036C54.9402 35.4144 54.8703 33.2253 54.8703 31.046C54.8703 28.7295 54.8923 26.4089 54.8544 24.0924C54.8284 23.832 54.8845 23.57 55.0147 23.3429C55.145 23.1157 55.3431 22.9345 55.5813 22.8246C56.2966 22.3987 57.1092 22.1617 57.9421 22.136C59.2503 22.136 59.8614 22.6714 59.8874 23.9789C59.9233 25.8338 59.9014 27.6886 59.9014 29.5514C59.9014 32.2521 59.9073 34.9687 59.8994 37.6832V37.6852Z" fill="#464648"/>
<path d="M76.7 24.0634C76.6601 20.6224 74.8745 18.9746 71.4473 18.9507C66.8097 18.9188 65.2839 20.4334 65.2819 25.0705C65.2819 27.5701 65.2819 27.5502 67.7724 27.5263C68.3716 27.5263 68.6013 27.3791 68.5713 26.7522C68.5234 25.8267 68.5314 24.8953 68.5713 23.9659C68.6332 22.5847 69.3422 22.0096 70.9021 22.0076C72.4619 22.0056 73.1829 22.5668 73.2388 23.95C73.2868 25.1083 73.2208 26.2725 73.2728 27.4308C73.2987 28.0099 73.073 28.2408 72.5458 28.408C71.0578 28.8836 69.5759 29.3851 68.1119 29.9245C66.4263 30.5434 65.3757 31.7475 65.3278 33.5605C65.2532 35.7105 65.2925 37.8629 65.4456 40.0087C65.5914 41.8754 66.7998 42.8884 68.6652 43.0835C70.3888 43.2626 71.8607 42.6854 73.4286 41.4336C72.8693 43.1113 73.8699 42.8586 74.6748 42.8486C75.1422 42.8486 75.6095 42.8168 76.0729 42.8486C76.6181 42.8964 76.738 42.6496 76.736 42.1581C76.728 36.1318 76.7699 30.0956 76.7 24.0634ZM72.4759 39.3599C71.8273 39.7015 71.1186 39.915 70.3888 39.9888C69.2504 40.0684 68.6232 39.5131 68.6013 38.3688C68.5753 37.0433 68.6013 35.7159 68.6013 34.3884C68.5793 33.9529 68.697 33.5217 68.9371 33.1571C69.1773 32.7926 69.5276 32.5136 69.9374 32.3604C70.8222 31.9823 71.7349 31.6719 72.6317 31.3156C73.121 31.1166 73.2808 31.2818 73.2708 31.7873C73.2488 32.8819 73.2708 33.9765 73.2708 35.0691C73.2708 36.0642 73.2228 37.0592 73.2868 38.0543C73.3207 38.729 73.0511 39.0832 72.4759 39.3599Z" fill="#464648"/>
<path d="M47.1458 35.192C46.315 35.1721 45.8996 35.3154 46.0394 36.2527C46.0947 36.8145 46.098 37.3801 46.0494 37.9424C45.9994 39.4549 45.3503 40.0002 43.6307 39.9962C41.9111 39.9923 41.282 39.433 41.26 37.8946C41.238 36.3562 41.292 34.776 41.236 33.2197C41.2101 32.4814 41.4977 32.346 42.1588 32.358C44.2539 32.3938 46.3529 32.3401 48.448 32.3898C49.173 32.4057 49.3268 32.1669 49.3168 31.4903C49.2769 29.102 49.3168 26.7138 49.2969 24.3256C49.2689 20.6637 47.5673 18.9681 43.9063 18.9502H43.3072C39.6942 18.9601 37.9147 20.6896 37.8687 24.3237C37.8428 26.0133 37.8507 27.7069 37.8547 29.3926C37.8547 29.9897 37.8547 30.5867 37.8547 31.1838C37.8547 31.5559 37.8547 31.9281 37.8547 32.3022C37.8547 34.382 37.8288 36.4637 37.8667 38.5434C37.9147 41.0888 39.3786 42.6869 41.9011 43.0551C43.0212 43.2243 44.1604 43.2243 45.2804 43.0551C47.5053 42.7148 48.8754 41.3774 49.199 39.1643C49.2732 38.5703 49.3053 37.9718 49.2949 37.3732C49.3128 35.2099 49.3048 35.2477 47.1458 35.192ZM41.292 24.047C41.3359 22.6081 42.0549 22.0807 43.8045 22.1026C45.3423 22.1225 45.9835 22.6997 46.0214 24.1406C46.0394 24.8351 46.0214 25.5337 46.0214 26.2243C46.0214 26.9845 45.9954 27.7467 46.0214 28.507C46.0454 29.0304 45.8476 29.1996 45.3344 29.1876C44.2079 29.1598 43.0775 29.1598 41.9391 29.1876C41.4338 29.1996 41.234 29.0443 41.244 28.513C41.298 27.0144 41.248 25.5178 41.292 24.0371V24.047Z" fill="#464648"/>
<path d="M33.6314 40.534C33.196 40.534 33.0522 40.2256 32.8485 40.0365C30.4678 37.8194 28.107 35.5785 25.7104 33.3774C25.225 32.9316 25.1272 32.452 25.0453 31.831C24.8196 30.1215 25.4447 28.9413 26.7529 27.8228C29.0657 25.8326 31.2167 23.6654 33.6214 21.3926C33.6214 22.935 33.6334 24.2644 33.6214 25.5938C33.6214 25.9182 33.2998 26.0834 33.0881 26.2844C31.6701 27.6357 30.27 29.007 28.8121 30.3145C28.1969 30.8638 28.0451 31.1862 28.7721 31.8091C30.2521 33.0808 31.6302 34.474 33.0801 35.7954C33.271 35.9491 33.4219 36.1464 33.5199 36.3706C33.618 36.5947 33.6603 36.8391 33.6434 37.0831C33.6054 38.2274 33.6314 39.3738 33.6314 40.534Z" fill="#39C2D7"/>
<path d="M109.191 34.488C107.016 36.2234 105.087 38.2693 103.045 40.16C102.886 40.3073 102.772 40.5441 102.39 40.5302C102.39 39.2246 102.39 37.9171 102.39 36.6115C102.39 36.2135 102.698 36.0443 102.932 35.8154C104.431 34.4044 105.927 32.9834 107.449 31.6062C107.913 31.1883 107.911 30.9475 107.449 30.5296C105.935 29.1364 104.469 27.6876 102.961 26.2905C102.757 26.123 102.596 25.9091 102.492 25.6666C102.387 25.4242 102.343 25.1604 102.362 24.8974C102.408 23.8127 102.374 22.7261 102.374 21.3608C105.266 24.0933 107.967 26.6447 110.663 29.1882C110.91 29.423 110.904 29.6977 110.94 29.9982C111.168 31.8252 110.747 33.2461 109.191 34.488Z" fill="#39C2D7"/>
</svg>

<svg xmlns="http://www.w3.org/2000/svg" width="136" height="68" fill="none"><path fill="#464648" d="M98.153 41.952c0 .718-.14.967-.917.957-2.472-.03-2.472 0-2.472-2.47V24.23c0-1.842-.8-2.437-2.597-1.95-.35.096-.683.253-1.024.38-.811.303-1.095.832-1.089 1.742.05 5.833 0 11.666.046 17.501 0 .796-.237.98-.998.965-2.313-.043-2.313 0-2.313-2.322V24.337c0-1.976-.799-2.573-2.692-2.038-1.76.498-1.988.796-1.988 2.597 0 5.636-.024 11.27.024 16.905 0 .91-.255 1.092-1.11 1.069-2.277-.06-2.279-.018-2.279-2.243 0-6.797.016-13.591-.018-20.386 0-.824.2-1.156 1.037-1.027.298.03.598.03.896 0 .901-.037 1.874-.175 1.42 1.453 1.538-1.282 3.04-1.883 4.794-1.662.956.12 1.843.452 2.374 1.292.382.597.634.412 1.059.081 1.424-1.108 3.024-1.647 4.847-1.32 1.546.28 2.485 1.213 2.816 2.722.113.552.166 1.114.16 1.677.01 6.166-.006 12.331.024 18.495ZM63.197 22.958c-.2-2.786-2.215-4.354-4.993-3.939a5.71 5.71 0 0 0-2.635 1.115c-.301.227-.689.398-.657-.183.044-.796-.4-.753-.934-.735-.498.04-.998.04-1.496 0-.8-.103-.999.2-.999.995.038 4.642.018 9.283.018 13.932v12.339c0 2.629 0 2.607 2.682 2.555.6-.01.707-.21.7-.742a244.115 244.115 0 0 1 0-5.67c0-.28-.145-.667.145-.82.29-.153.505.225.743.374 1.728 1.08 3.557 1.381 5.403.452 1.747-.88 2.055-2.563 2.067-4.329V26.465c-.002-1.189.04-2.353-.044-3.507Zm-3.298 14.727c0 1.865-.773 2.504-2.634 2.19a5.945 5.945 0 0 1-1.14-.339c-.88-.336-1.335-.868-1.285-1.932.1-2.19.03-4.379.03-6.558 0-2.316.022-4.637-.016-6.954a1.256 1.256 0 0 1 .727-1.267 4.911 4.911 0 0 1 2.361-.689c1.308 0 1.92.535 1.945 1.843.036 1.855.014 3.71.014 5.572 0 2.701.006 5.418-.002 8.132v.002ZM76.7 24.063c-.04-3.44-1.826-5.088-5.253-5.112-4.637-.032-6.163 1.482-6.165 6.12 0 2.5 0 2.48 2.49 2.455.6 0 .83-.147.8-.774a29.49 29.49 0 0 1 0-2.786c.061-1.381.77-1.956 2.33-1.958 1.56-.002 2.28.559 2.337 1.942.048 1.158-.018 2.323.034 3.48.026.58-.2.81-.727.978-1.488.476-2.97.977-4.434 1.516-1.686.62-2.736 1.823-2.784 3.636a60.921 60.921 0 0 0 .118 6.449c.145 1.866 1.354 2.88 3.22 3.075 1.723.179 3.195-.399 4.763-1.65-.56 1.677.44 1.425 1.246 1.415.467 0 .934-.032 1.398 0 .545.047.665-.2.663-.69-.008-6.027.034-12.063-.036-18.096ZM72.476 39.36a5.712 5.712 0 0 1-2.087.629c-1.139.08-1.766-.476-1.788-1.62-.026-1.326 0-2.653 0-3.98a2.05 2.05 0 0 1 1.336-2.029c.885-.378 1.798-.688 2.695-1.044.489-.2.649-.034.639.471-.022 1.095 0 2.19 0 3.282 0 .995-.048 1.99.016 2.985.034.675-.236 1.03-.811 1.306ZM47.146 35.192c-.831-.02-1.246.123-1.107 1.06a9.18 9.18 0 0 1 .01 1.69C46 39.455 45.35 40 43.631 39.996c-1.72-.004-2.349-.563-2.371-2.101-.022-1.539.032-3.119-.024-4.675-.026-.739.262-.874.923-.862 2.095.036 4.194-.018 6.289.032.725.016.879-.223.869-.9-.04-2.388 0-4.776-.02-7.164-.028-3.662-1.73-5.358-5.39-5.376h-.6c-3.613.01-5.392 1.74-5.438 5.374-.026 1.69-.018 3.383-.014 5.069v2.91c0 2.079-.026 4.16.012 6.24.048 2.546 1.512 4.144 4.034 4.512 1.12.17 2.26.17 3.38 0 2.224-.34 3.594-1.678 3.918-3.89.074-.595.106-1.193.096-1.792.018-2.163.01-2.125-2.15-2.181Zm-5.854-11.145c.044-1.439.763-1.966 2.512-1.944 1.538.02 2.18.597 2.217 2.038.018.694 0 1.393 0 2.083 0 .76-.026 1.523 0 2.283.024.523-.173.693-.687.68a69.123 69.123 0 0 0-3.395 0c-.505.013-.705-.143-.695-.674.054-1.499.004-2.995.048-4.476v.01Z"/><path fill="#39C2D7" d="M33.631 40.534c-.435 0-.579-.308-.782-.498-2.381-2.217-4.742-4.458-7.139-6.659-.485-.445-.583-.925-.665-1.546-.225-1.71.4-2.89 1.708-4.008 2.313-1.99 4.464-4.158 6.868-6.43 0 1.542.012 2.871 0 4.2 0 .325-.321.49-.533.691-1.418 1.352-2.818 2.723-4.276 4.03-.615.55-.767.872-.04 1.495 1.48 1.272 2.858 2.665 4.308 3.986a1.52 1.52 0 0 1 .563 1.288c-.038 1.144-.012 2.29-.012 3.451ZM109.191 34.488c-2.175 1.735-4.104 3.781-6.146 5.672-.159.147-.273.384-.655.37v-3.919c0-.397.308-.567.542-.796 1.499-1.41 2.995-2.832 4.517-4.209.464-.418.462-.659 0-1.076-1.514-1.394-2.98-2.842-4.488-4.24a1.648 1.648 0 0 1-.599-1.393c.046-1.084.012-2.17.012-3.536 2.892 2.732 5.593 5.284 8.289 7.827.247.235.241.51.277.81.228 1.827-.193 3.248-1.749 4.49Z"/></svg>
